X: 1082
T: HENRY'S RETURN
B: Oliver Ditson "The Boston Collection of Instrumental Music" 1910 p.108 #2
F: http://conquest.imslp.info/files/imglnks/usimg/8/8f/IMSLP175643-PMLP309456-bostoncollection00bost_bw.pdf
%: 2012 John Chambers <jc:trillian.mit.edu>
N: Called "A Drumeddie" in the Robert Petrie Collection, 1790.
N: Called "Prince William Henry's Return" in "Sources of Irish traditional music, c. 1600-1855", 1998 (Aloys Fleishcmann)
N: Called "Prince William Henry's Return" in Aird's Airs, 1801 v.6 #1163 (Jack Campin's transcription)
M: 6/8
L: 1/8
K: D
A |\
dfd B2d | AFA A2d | AFA Ade | f3 gfe |\
dfd B2d | AFA A2d | B2g fge | d3 d2 :|
|: A |\
dfg a2f | b2g a2f | dfg a2f | g2e bge |\
dfg a2f | b2g a2f | fdA Ade | f3 f2e/d/ |
B2B B2d | A2A A2d | AFA Ade | f3 f2e/d/ |\
B2B B2d | AFA A2d | B2g fge | d3 d2 :|

%%sep 1 1 500
%%sep 1 1 500
